Numix-GalliumOS/48/actions/merge.svg

<?xml version="1.0" encoding="UTF-8" standalone="no"?>
<svg
   xmlns:dc="http://purl.org/dc/elements/1.1/"
   xmlns:cc="http://creativecommons.org/ns#"
   xmlns:rdf="http://www.w3.org/1999/02/22-rdf-syntax-ns#"
   xmlns:svg="http://www.w3.org/2000/svg"
   xmlns="http://www.w3.org/2000/svg"
   xmlns:sodipodi="http://sodipodi.sourceforge.net/DTD/sodipodi-0.dtd"
   xmlns:inkscape="http://www.inkscape.org/namespaces/inkscape"
   width="48"
   height="48"
   viewBox="0 0 48 48"
   id="svg2"
   version="1.1"
   inkscape:version="0.91 r13725"
   sodipodi:docname="merge.svg">
  <metadata
     id="metadata10">
    <rdf:RDF>
      <cc:Work
         rdf:about="">
        <dc:format>image/svg+xml</dc:format>
        <dc:type
           rdf:resource="http://purl.org/dc/dcmitype/StillImage" />
      </cc:Work>
    </rdf:RDF>
  </metadata>
  <defs
     id="defs8" />
  <sodipodi:namedview
     pagecolor="#ffffff"
     bordercolor="#666666"
     borderopacity="1"
     objecttolerance="10"
     gridtolerance="10"
     guidetolerance="10"
     inkscape:pageopacity="0"
     inkscape:pageshadow="2"
     inkscape:window-width="1366"
     inkscape:window-height="704"
     id="namedview6"
     showgrid="false"
     inkscape:zoom="1"
     inkscape:cx="15.790546"
     inkscape:cy="16.5"
     inkscape:window-x="0"
     inkscape:window-y="27"
     inkscape:window-maximized="1"
     inkscape:current-layer="svg2"
     inkscape:object-nodes="true">
    <inkscape:grid
       type="xygrid"
       id="grid4150" />
  </sodipodi:namedview>
  <rect
     style="opacity:1;fill:#268bd2;fill-opacity:1;stroke:none;stroke-width:2;stroke-linecap:round;stroke-linejoin:round;stroke-miterlimit:4;stroke-dasharray:none;stroke-opacity:1"
     id="rect4140"
     width="4"
     height="8.999999"
     x="10"
     y="33" />
  <path
     style="opacity:1;fill:#268bd2;fill-opacity:1;stroke:none;stroke-width:2;stroke-linecap:round;stroke-linejoin:round;stroke-miterlimit:4;stroke-dasharray:none;stroke-opacity:1"
     d="M 22,12.99969 22,22.999692 10,32.999688 12.5625,36.07 24,26.538752 35.4375,36.07 38,32.999688 26,22.999692 26,12.99969 l -4,0 z"
     id="rect4142"
     inkscape:connector-curvature="0" />
  <path
     style="opacity:1;fill:#268bd2;fill-opacity:1;stroke:none;stroke-width:2;stroke-linecap:round;stroke-linejoin:round;stroke-miterlimit:4;stroke-dasharray:none;stroke-opacity:1"
     d="m 24,6.0000045 8,7.9999995 -16,0 z"
     id="rect4144"
     inkscape:connector-curvature="0"
     sodipodi:nodetypes="cccc" />
  <rect
     y="32.999687"
     x="34"
     height="9.0003109"
     width="4"
     id="rect4147"
     style="opacity:1;fill:#268bd2;fill-opacity:1;stroke:none;stroke-width:2;stroke-linecap:round;stroke-linejoin:round;stroke-miterlimit:4;stroke-dasharray:none;stroke-opacity:1" />
</svg>

<svg xmlns="http://www.w3.org/2000/svg" viewBox="0 0 48 48">
 <rect width="4" height="9" x="10" y="33" style="fill:#268bd2;opacity:1;fill-opacity:1;stroke:none"/>
 <path d="m 22 13 0 10 -12 10 2.563 3.07 11.438 -9.531 11.438 9.531 2.563 -3.07 -12 -10 0 -10 l -4 0 z" style="fill:#268bd2;opacity:1;fill-opacity:1;stroke:none"/>
 <path d="m 24 6 8 8 -16 0 z" style="fill:#268bd2;opacity:1;fill-opacity:1;stroke:none"/>
 <rect y="33" x="34" height="9" width="4" style="fill:#268bd2;opacity:1;fill-opacity:1;stroke:none"/>
</svg>
